src/assets/icons/real-estate/thumbs_up.svg

<svg width="48" height="48" viewBox="0 0 48 48" fill="none" xmlns="http://www.w3.org/2000/svg">
<rect width="48" height="48" fill="white"/>
<path fill-rule="evenodd" clip-rule="evenodd" d="M26.02 11.6268H26.0227H26.02ZM26.0227 11.6268C26.0241 11.6281 26.0255 11.6281 26.0255 11.6281C26.0255 11.6281 26.0241 11.6281 26.0227 11.6268ZM26.0268 11.6281H26.0282H26.0268ZM26.0295 11.6281H26.0309H26.0295ZM26.2551 11.6413C26.1206 11.7098 25.7904 11.9879 25.4194 12.6956C24.4626 14.5117 18.5253 18.3614 16.7288 19.4988C16.0235 19.9456 15.1619 21.7722 14.833 24.8444C14.4593 28.3343 15.0206 31.2456 15.5886 31.7965C17.9274 34.0633 23.6704 35.1243 28.2664 35.3615C29.0532 35.4168 29.7055 34.634 30.1404 33.9842C32.1979 30.9082 32.9888 24.1551 31.5999 21.5258C31.2479 20.8589 30.9463 20.8431 30.8471 20.8391L25.7713 20.8602C25.6844 20.8681 25.596 20.8708 25.5104 20.8616L24.146 20.8668H24.1406C23.3918 20.8668 22.7843 20.279 22.7816 19.5542C22.7789 18.8253 23.385 18.2336 24.1351 18.2309L24.994 18.227C25.615 17.4191 26.8585 15.4817 26.8585 12.9592C26.8585 12.0538 26.618 11.777 26.5446 11.7137C26.4848 11.6623 26.3842 11.6307 26.3842 11.6307C26.3394 11.636 26.2972 11.6399 26.2551 11.6413ZM28.3289 38C28.2582 38 28.1903 37.9974 28.1237 37.9947C24.9519 37.8313 17.1949 37.0801 13.6671 33.66C11.8719 31.9177 11.8556 27.1283 12.1287 24.5715C12.357 22.4444 13.065 18.6698 15.2434 17.2913C19.4046 14.6593 22.6117 12.1684 22.999 11.4923C24.1732 9.26634 25.5797 9.00407 26.179 9.00407H26.1858C26.5663 8.98298 27.504 9.01857 28.3452 9.73948C29.1633 10.4419 29.5764 11.524 29.5764 12.9592C29.5764 15.114 28.9051 16.917 28.2025 18.2151L30.9082 18.2046C32.2509 18.2665 33.3299 19.0178 34.0202 20.3238C35.8412 23.7729 35.0191 31.5329 32.4207 35.4182C31.0142 37.5216 29.4541 38 28.3289 38Z" fill="#253238"/>
</svg>

<svg width="48" height="48" viewBox="0 0 48 48" fill="none" xmlns="http://www.w3.org/2000/svg"><path fill-rule="evenodd" clip-rule="evenodd" d="M26.02 11.627h.003-.003zm.003 0a.005.005 0 00.003.001l-.003-.001zm.004.001h.001-.001zm.002 0h.002-.002zm.226.013c-.134.069-.465.347-.836 1.055-.956 1.816-6.894 5.665-8.69 6.803-.706.447-1.567 2.273-1.896 5.345-.374 3.49.188 6.402.756 6.953 2.338 2.266 8.081 3.327 12.677 3.564.787.056 1.44-.727 1.874-1.377 2.058-3.076 2.849-9.829 1.46-12.458-.352-.667-.654-.683-.753-.687l-5.076.021a1.33 1.33 0 01-.26.002l-1.365.005h-.005c-.75 0-1.357-.588-1.36-1.313-.002-.729.604-1.32 1.354-1.323l.859-.004c.621-.808 1.864-2.745 1.864-5.268 0-.905-.24-1.182-.313-1.245-.06-.052-.16-.083-.16-.083-.046.005-.088.009-.13.01zM28.33 38c-.07 0-.139-.003-.205-.005-3.172-.164-10.93-.915-14.457-4.335-1.795-1.742-1.811-6.532-1.538-9.088.228-2.128.936-5.902 3.114-7.28 4.162-2.633 7.369-5.124 7.756-5.8 1.174-2.226 2.58-2.488 3.18-2.488h.007a3.092 3.092 0 012.16.735c.817.703 1.23 1.785 1.23 3.22 0 2.155-.67 3.958-1.373 5.256l2.705-.01c1.343.062 2.422.813 3.112 2.119 1.821 3.449 1 11.209-1.6 15.094C31.015 37.522 29.455 38 28.33 38z" fill="#253238"/></svg>
